packages/match-icons/product/svg/media-streams.svg

<svg fill="none" height="32" viewBox="0 0 32 32" width="32" xmlns="http://www.w3.org/2000/svg"><path d="m28 20c-.7035.0055-1.3828.258-1.919.7135s-.8953 1.085-1.0144 1.7784.0092 1.4066.3626 2.015c.3534.6083.9094 1.0731 1.5708 1.3131v1.68c0 .5304-.2107 1.0391-.5858 1.4142s-.8838.5858-1.4142.5858-1.0391-.2107-1.4142-.5858-.5858-.8838-.5858-1.4142v-7c0-1.0609-.4214-2.0783-1.1716-2.8284-.7501-.7502-1.7675-1.1716-2.8284-1.1716-.705.003-1.396.1964-2 .56v-12.56c0-.53043.2107-1.03914.5858-1.41421.3751-.37508.8838-.58579 1.4142-.58579s1.0391.21071 1.4142.58579c.3751.37507.5858.88378.5858 1.41421v7c0 1.0609.4214 2.0783 1.1716 2.8284.7501.7502 1.7675 1.1716 2.8284 1.1716s2.0783-.4214 2.8284-1.1716c.7502-.7501 1.1716-1.7675 1.1716-2.8284v-1.68c.6672-.2359 1.2296-.70007 1.5876-1.31048.3581-.61041.4889-1.32776.3692-2.02525-.1197-.6975-.4821-1.33023-1.0231-1.78637-.5411-.45615-1.226-.70633-1.9337-.70633s-1.3926.25018-1.9337.70633c-.541.45614-.9034 1.08887-1.0231 1.78637-.1197.69749.0111 1.41484.3692 2.02525s.9204 1.07458 1.5876 1.31048v1.68c0 .5304-.2107 1.0391-.5858 1.4142s-.8838.5858-1.4142.5858-1.0391-.2107-1.4142-.5858-.5858-.8838-.5858-1.4142v-7c0-1.06087-.4214-2.07828-1.1716-2.82843-.7501-.750143-1.7675-1.17157-2.8284-1.17157s-2.0783.421427-2.8284 1.17157c-.7502.75015-1.1716 1.76756-1.1716 2.82843v17c0 .5304-.2107 1.0391-.5858 1.4142s-.8838.5858-1.4142.5858-1.0391-.2107-1.4142-.5858-.5858-.8838-.5858-1.4142v-8.5c0-1.0609-.4214-2.0783-1.17157-2.8284-.75014-.75017-1.76756-1.1716-2.82842-1.1716-1.06087 0-2.07829.42143-2.82843 1.1716-.75015.7501-1.17157 1.7675-1.17157 2.8284v.18c-.66722.2359-1.22956.7001-1.58764 1.3105-.35807.6104-.488831 1.3277-.36916 2.0252.11967.6975.48207 1.3303 1.02314 1.7864.54106.4561 1.22597.7063 1.93366.7063.70768 0 1.39259-.2502 1.93366-.7063s.90346-1.0889 1.02313-1.7864-.01108-1.4148-.36916-2.0252-.92042-1.0746-1.58763-1.3105v-.18c0-.5304.21071-1.0391.58578-1.4142.37508-.3751.88378-.5858 1.41422-.5858.53043 0 1.03914.2107 1.41421.5858s.58579.8838.58579 1.4142v8.5c0 1.0609.42142 2.0783 1.17159 2.8284.7501.7502 1.7675 1.1716 2.8284 1.1716s2.0783-.4214 2.8284-1.1716c.7502-.7501 1.1716-1.7675 1.1716-2.8284v-1c0-.5304.2107-1.0391.5858-1.4142s.8838-.5858 1.4142-.5858 1.0391.2107 1.4142.5858.5858.8838.5858 1.4142v7c0 1.0609.4214 2.0783 1.1716 2.8284.7501.7502 1.7675 1.1716 2.8284 1.1716s2.0783-.4214 2.8284-1.1716c.7502-.7501 1.1716-1.7675 1.1716-2.8284v-1.68c.6614-.24 1.2174-.7048 1.5708-1.3131.3534-.6084.4817-1.3216.3626-2.015s-.4782-1.3229-1.0144-1.7784-1.2155-.708-1.919-.7135z" fill="#394762"/></svg>

<svg width="32" height="32" viewBox="0 0 32 32" fill="none" xmlns="http://www.w3.org/2000/svg">
<path d="M28 20C27.2965 20.0055 26.6172 20.258 26.081 20.7135C25.5448 21.169 25.1857 21.7985 25.0666 22.4919C24.9475 23.1853 25.0758 23.8985 25.4292 24.5069C25.7826 25.1152 26.3386 25.58 27 25.82V27.5C27 28.0304 26.7893 28.5391 26.4142 28.9142C26.0391 29.2893 25.5304 29.5 25 29.5C24.4696 29.5 23.9609 29.2893 23.5858 28.9142C23.2107 28.5391 23 28.0304 23 27.5V20.5C23 19.4391 22.5786 18.4217 21.8284 17.6716C21.0783 16.9214 20.0609 16.5 19 16.5C18.295 16.503 17.604 16.6964 17 17.06V4.5C17 3.96957 17.2107 3.46086 17.5858 3.08579C17.9609 2.71071 18.4696 2.5 19 2.5C19.5304 2.5 20.0391 2.71071 20.4142 3.08579C20.7893 3.46086 21 3.96957 21 4.5V11.5C21 12.5609 21.4214 13.5783 22.1716 14.3284C22.9217 15.0786 23.9391 15.5 25 15.5C26.0609 15.5 27.0783 15.0786 27.8284 14.3284C28.5786 13.5783 29 12.5609 29 11.5V9.82C29.6672 9.5841 30.2296 9.11993 30.5876 8.50952C30.9457 7.89911 31.0765 7.18176 30.9568 6.48427C30.8371 5.78677 30.4747 5.15404 29.9337 4.6979C29.3926 4.24175 28.7077 3.99157 28 3.99157C27.2923 3.99157 26.6074 4.24175 26.0663 4.6979C25.5253 5.15404 25.1629 5.78677 25.0432 6.48427C24.9235 7.18176 25.0543 7.89911 25.4124 8.50952C25.7705 9.11993 26.3328 9.5841 27 9.82V11.5C27 12.0304 26.7893 12.5391 26.4142 12.9142C26.0391 13.2893 25.5304 13.5 25 13.5C24.4696 13.5 23.9609 13.2893 23.5858 12.9142C23.2107 12.5391 23 12.0304 23 11.5V4.5C23 3.43913 22.5786 2.42172 21.8284 1.67157C21.0783 0.921427 20.0609 0.5 19 0.5C17.9391 0.5 16.9217 0.921427 16.1716 1.67157C15.4214 2.42172 15 3.43913 15 4.5V21.5C15 22.0304 14.7893 22.5391 14.4142 22.9142C14.0391 23.2893 13.5304 23.5 13 23.5C12.4696 23.5 11.9609 23.2893 11.5858 22.9142C11.2107 22.5391 11 22.0304 11 21.5V13C11 11.9391 10.5786 10.9217 9.82843 10.1716C9.07829 9.42143 8.06087 9 7.00001 9C5.93914 9 4.92172 9.42143 4.17158 10.1716C3.42143 10.9217 3.00001 11.9391 3.00001 13V13.18C2.33279 13.4159 1.77045 13.8801 1.41237 14.4905C1.0543 15.1009 0.923539 15.8182 1.04321 16.5157C1.16288 17.2132 1.52528 17.846 2.06635 18.3021C2.60741 18.7582 3.29232 19.0084 4.00001 19.0084C4.70769 19.0084 5.3926 18.7582 5.93367 18.3021C6.47474 17.846 6.83713 17.2132 6.9568 16.5157C7.07647 15.8182 6.94572 15.1009 6.58764 14.4905C6.22956 13.8801 5.66722 13.4159 5.00001 13.18V13C5.00001 12.4696 5.21072 11.9609 5.58579 11.5858C5.96087 11.2107 6.46957 11 7.00001 11C7.53044 11 8.03915 11.2107 8.41422 11.5858C8.78929 11.9609 9.00001 12.4696 9.00001 13V21.5C9.00001 22.5609 9.42143 23.5783 10.1716 24.3284C10.9217 25.0786 11.9391 25.5 13 25.5C14.0609 25.5 15.0783 25.0786 15.8284 24.3284C16.5786 23.5783 17 22.5609 17 21.5V20.5C17 19.9696 17.2107 19.4609 17.5858 19.0858C17.9609 18.7107 18.4696 18.5 19 18.5C19.5304 18.5 20.0391 18.7107 20.4142 19.0858C20.7893 19.4609 21 19.9696 21 20.5V27.5C21 28.5609 21.4214 29.5783 22.1716 30.3284C22.9217 31.0786 23.9391 31.5 25 31.5C26.0609 31.5 27.0783 31.0786 27.8284 30.3284C28.5786 29.5783 29 28.5609 29 27.5V25.82C29.6614 25.58 30.2174 25.1152 30.5708 24.5069C30.9242 23.8985 31.0525 23.1853 30.9334 22.4919C30.8143 21.7985 30.4552 21.169 29.919 20.7135C29.3828 20.258 28.7035 20.0055 28 20V20Z" fill="#394762"/>
</svg>
